X: 1
T: THE BUTCHER BOY -- JIG
B: Ryan's Mammoth Collection of Fiddle Tunes
R: jig
M: 2/4
L: 1/16
Z: Contributed 20011219163243 by John Chambers jmchambers:rcn.com
K: D
uA \
| vd2vAud BdAd | vd2uAvA Be zue | d2Ad BdAd | gefd Bd zd \
| d2Ad BdAd d2AA Be ze | d2Ad BdAf | gefd Bdz |]
uA \
| vfua zua va2 zuf | vgefd ed zuA | fa za "4"d'2 z"3"a | gefd ed zA \
| fa za a2 zf | gefd ed zd | gg zg gdgb | gfeg fdz |]
